svg/weather/heavy_snowstorm_fill.svg

<?xml version="1.0" encoding="UTF-8"?>
<svg width="24px" height="24px" viewBox="0 0 24 24" version="1.1" xmlns="http://www.w3.org/2000/svg" xmlns:xlink="http://www.w3.org/1999/xlink">
    <title>heavy_snowstorm_fill</title>
    <g id="Icon" stroke="none" stroke-width="1" fill="none" fill-rule="evenodd">
        <g id="Weather" transform="translate(-337.000000, -240.000000)" fill-rule="nonzero">
            <g id="heavy_snowstorm_fill" transform="translate(337.000000, 240.000000)">
                <path d="M24,0 L24,24 L0,24 L0,0 L24,0 Z M12.5935,23.2578 L12.5819,23.2595 L12.5109,23.295 L12.4919,23.2987 L12.4767,23.295 L12.4057,23.2595 C12.3958,23.2564 12.387,23.259 12.3821,23.2649 L12.378,23.2758 L12.3609,23.7031 L12.3659,23.7235 L12.3769,23.7357 L12.4805,23.8097 L12.4953,23.8136 L12.5071,23.8097 L12.6107,23.7357 L12.6233,23.7197 L12.6267,23.7031 L12.6096,23.2758 C12.6076,23.2657 12.601,23.2593 12.5935,23.2578 Z M12.8584,23.1453 L12.8445,23.1473 L12.6598,23.2397 L12.6499,23.2499 L12.6472,23.2611 L12.6651,23.6906 L12.6699,23.7034 L12.6784,23.7105 L12.8793,23.8032 C12.8914,23.8069 12.9022,23.803 12.9078,23.7952 L12.9118,23.7812 L12.8777,23.1665 C12.8753,23.1546 12.8674,23.147 12.8584,23.1453 Z M12.143,23.1473 C12.1332,23.1424 12.1222,23.1453 12.1156,23.1526 L12.1099,23.1665 L12.0758,23.7812 C12.0751,23.7927 12.0828,23.8019 12.0926,23.8046 L12.1083,23.8032 L12.3092,23.7105 L12.3186,23.7024 L12.3225,23.6906 L12.3404,23.2611 L12.3372,23.2485 L12.3278,23.2397 L12.143,23.1473 Z" id="MingCute"></path>
                <path d="M11.5,2 C14.2856,2 16.66,3.75154 17.5856,6.21198 C20.13,6.90766 22,9.23462 22,12 C22,13.8275 21.183,15.4641 19.8944,16.5646 C19.6236,16.355 19.3253,16.1981 19.0132,16.0939 C19.1086,15.5625 19.0602,15.0103 18.8677,14.5 C19.2708,13.4311 19.0423,12.1783 18.182,11.318 C17.3217,10.4577 16.0689,10.2291 15,10.6323 C14.0043,10.2567 12.8489,10.4294 12,11.1502 C11.151,10.4294 9.9957,10.2567 9,10.6323 C7.93112,10.2291 6.67831,10.4577 5.81801,11.318 C4.95771,12.1783 4.72914,13.4311 5.1323,14.5 C4.93548,15.0218 4.88922,15.5875 4.99352,16.1299 C4.37131,15.8968 3.68724,15.8776 3.05479,16.0721 C2.39379,15.2244 2,14.1582 2,13 C2,10.9486 3.23468,9.18749 5.00053,8.41614 C5.04543,4.86494 7.93814,2 11.5,2 Z M7.23222,12.7322 C7.59270923,12.3717385 8.15993645,12.3440107 8.55223152,12.6490166 L8.64644,12.7322 L8.99999,13.0858 L9.35354,12.7322 C9.74407,12.3417 10.3772,12.3417 10.7678,12.7322 C11.1282615,13.0926615 11.1559893,13.6599207 10.8509834,14.0521973 L10.7678,14.1464 L10.4142,14.5 L10.7678,14.8535 C11.1583,15.2441 11.1583,15.8772 10.7678,16.2678 C10.4072462,16.6282615 9.84003953,16.6559893 9.447748,16.3509834 L9.35354,16.2678 L8.99999,15.9142 L8.64644,16.2678 C8.25591,16.6583 7.62275,16.6583 7.23222,16.2678 C6.87174,15.9072462 6.84401077,15.3400651 7.14903231,14.9477224 L7.23222,14.8535 L7.58578,14.5 L7.23222,14.1464 C6.8417,13.7559 6.8417,13.1227 7.23222,12.7322 Z M14.6464,12.7322 L15,13.0858 L15.3535,12.7322 C15.7441,12.3417 16.3772,12.3417 16.7678,12.7322 C17.1583,13.1227 17.1583,13.7559 16.7678,14.1464 L16.4142,14.5 L16.7678,14.8535 C17.1583,15.2441 17.1583,15.8772 16.7678,16.2678 C16.3772,16.6583 15.7441,16.6583 15.3535,16.2678 L15,15.9142 L14.6464,16.2678 C14.2559,16.6583 13.6227,16.6583 13.2322,16.2678 C12.8417,15.8772 12.8417,15.2441 13.2322,14.8535 L13.5858,14.5 L13.2322,14.1464 C12.8417,13.7559 12.8417,13.1227 13.2322,12.7322 C13.6227,12.3417 14.2559,12.3417 14.6464,12.7322 Z M6.76776,19.6464 C7.15828,19.2559 7.15828,18.6227 6.76776,18.2322 C6.37723,17.8417 5.74407,17.8417 5.35354,18.2322 L4.99999,18.5858 L4.64644,18.2322 C4.25591,17.8417 3.62275,17.8417 3.23222,18.2322 C2.8417,18.6227 2.8417,19.2559 3.23222,19.6464 L3.58578,20 L3.23222,20.3535 C2.8417,20.7441 2.8417,21.3772 3.23222,21.7678 C3.62275,22.1583 4.25591,22.1583 4.64644,21.7678 L4.99999,21.4142 L5.35354,21.7678 C5.74407,22.1583 6.37723,22.1583 6.76776,21.7678 C7.15828,21.3772 7.15828,20.7441 6.76776,20.3535 L6.4142,20 L6.76776,19.6464 Z M18.7678,18.2322 C19.1583,18.6227 19.1583,19.2559 18.7678,19.6464 L18.4142,20 L18.7678,20.3535 C19.1583,20.7441 19.1583,21.3772 18.7678,21.7678 C18.3772,22.1583 17.7441,22.1583 17.3535,21.7678 L17,21.4142 L16.6464,21.7678 C16.2559,22.1583 15.6227,22.1583 15.2322,21.7678 C14.8417,21.3772 14.8417,20.7441 15.2322,20.3535 L15.5858,20 L15.2322,19.6464 C14.8417,19.2559 14.8417,18.6227 15.2322,18.2322 C15.6227,17.8417 16.2559,17.8417 16.6464,18.2322 L17,18.5858 L17.3535,18.2322 C17.7441,17.8417 18.3772,17.8417 18.7678,18.2322 Z M12.7678,19.6464 C13.1583,19.2559 13.1583,18.6227 12.7678,18.2322 C12.3772,17.8417 11.7441,17.8417 11.3535,18.2322 L11,18.5858 L10.6464,18.2322 C10.2559,17.8417 9.62275,17.8417 9.23222,18.2322 C8.8417,18.6227 8.8417,19.2559 9.23222,19.6464 L9.58578,20 L9.23222,20.3535 C8.8417,20.7441 8.8417,21.3772 9.23222,21.7678 C9.62275,22.1583 10.2559,22.1583 10.6464,21.7678 L11,21.4142 L11.3535,21.7678 C11.7441,22.1583 12.3772,22.1583 12.7678,21.7678 C13.1583,21.3772 13.1583,20.7441 12.7678,20.3535 L12.4142,20 L12.7678,19.6464 Z" id="形状" fill="#09244B"></path>
            </g>
        </g>
    </g>
</svg>

<svg xmlns="http://www.w3.org/2000/svg" width="24" height="24"><g fill="none" fill-rule="nonzero"><path d="M24 0v24H0V0h24ZM12.594 23.258l-.012.002-.071.035-.02.004-.014-.004-.071-.036c-.01-.003-.019 0-.024.006l-.004.01-.017.428.005.02.01.013.104.074.015.004.012-.004.104-.074.012-.016.004-.017-.017-.427c-.002-.01-.009-.017-.016-.018Zm.264-.113-.014.002-.184.093-.01.01-.003.011.018.43.005.012.008.008.201.092c.012.004.023 0 .029-.008l.004-.014-.034-.614c-.003-.012-.01-.02-.02-.022Zm-.715.002a.023.023 0 0 0-.027.006l-.006.014-.034.614c0 .012.007.02.017.024l.015-.002.201-.093.01-.008.003-.011.018-.43-.003-.012-.01-.01-.184-.092Z"/><path fill="#09244B" d="M11.5 2a6.502 6.502 0 0 1 6.086 4.212 6.002 6.002 0 0 1 2.308 10.353 2.98 2.98 0 0 0-.88-.471 3.013 3.013 0 0 0-.146-1.594A3 3 0 0 0 15 10.632a3.002 3.002 0 0 0-3 .518 3.002 3.002 0 0 0-3-.518A3 3 0 0 0 5.132 14.5a3.012 3.012 0 0 0-.138 1.63 3.012 3.012 0 0 0-1.94-.058A5 5 0 0 1 5 8.416 6.5 6.5 0 0 1 11.5 2ZM7.232 12.732a1 1 0 0 1 1.32-.083l.094.083.354.354.354-.354a1 1 0 0 1 1.497 1.32l-.083.094-.354.354.354.354a1 1 0 0 1-1.32 1.497l-.094-.083L9 15.914l-.354.354a1 1 0 0 1-1.497-1.32l.083-.095.354-.353-.354-.354a1 1 0 0 1 0-1.414Zm7.414 0 .354.354.354-.354a1 1 0 0 1 1.414 1.414l-.354.354.354.354a1 1 0 0 1-1.415 1.414L15 15.914l-.354.354a1 1 0 0 1-1.414-1.415l.354-.353-.354-.354a1 1 0 0 1 1.414-1.414Zm-7.878 6.914a1 1 0 1 0-1.414-1.414L5 18.586l-.354-.354a1 1 0 0 0-1.414 1.414l.354.354-.354.354a1 1 0 0 0 1.414 1.414L5 21.414l.354.354a1 1 0 0 0 1.414-1.415L6.414 20l.354-.354Zm12-1.414a1 1 0 0 1 0 1.414l-.354.354.354.354a1 1 0 0 1-1.415 1.414L17 21.414l-.354.354a1 1 0 0 1-1.414-1.415l.354-.353-.354-.354a1 1 0 0 1 1.414-1.414l.354.354.354-.354a1 1 0 0 1 1.414 0Zm-6 1.414a1 1 0 0 0-1.415-1.414l-.353.354-.354-.354a1 1 0 0 0-1.414 1.414l.354.354-.354.354a1 1 0 0 0 1.414 1.414l.354-.354.354.354a1 1 0 0 0 1.414-1.415L12.414 20l.354-.354Z"/></g></svg>
